icons/circle/48/chromecast.svg

<?xml version="1.0" encoding="UTF-8"?>
<svg version="1.1" viewBox="0 0 48 48" xmlns="http://www.w3.org/2000/svg" xmlns:cc="http://creativecommons.org/ns#" xmlns:dc="http://purl.org/dc/elements/1.1/" xmlns:rdf="http://www.w3.org/1999/02/22-rdf-syntax-ns#">
 <metadata>
  <rdf:RDF>
   <cc:Work rdf:about="">
    <dc:format>image/svg+xml</dc:format>
    <dc:type rdf:resource="http://purl.org/dc/dcmitype/StillImage"/>
    <dc:title/>
   </cc:Work>
  </rdf:RDF>
 </metadata>
 <defs>
  <linearGradient id="linearGradient3764" x2="0" y1="47" y2="1" gradientUnits="userSpaceOnUse">
   <stop stop-color="#3f7fe9" offset="0"/>
   <stop stop-color="#518aeb" offset="1"/>
  </linearGradient>
 </defs>
 <path d="m36.31 5c5.859 4.062 9.688 10.831 9.688 18.5 0 12.426-10.07 22.5-22.5 22.5-7.669 0-14.438-3.828-18.5-9.688 1.037 1.822 2.306 3.499 3.781 4.969 4.085 3.712 9.514 5.969 15.469 5.969 12.703 0 23-10.298 23-23 0-5.954-2.256-11.384-5.969-15.469-1.469-1.475-3.147-2.744-4.969-3.781zm4.969 3.781c3.854 4.113 6.219 9.637 6.219 15.719 0 12.703-10.297 23-23 23-6.081 0-11.606-2.364-15.719-6.219 4.16 4.144 9.883 6.719 16.219 6.719 12.703 0 23-10.298 23-23 0-6.335-2.575-12.06-6.719-16.219z" style="opacity:.05"/>
 <path d="m41.28 8.781c3.712 4.085 5.969 9.514 5.969 15.469 0 12.703-10.297 23-23 23-5.954 0-11.384-2.256-15.469-5.969 4.113 3.854 9.637 6.219 15.719 6.219 12.703 0 23-10.298 23-23 0-6.081-2.364-11.606-6.219-15.719z" style="opacity:.1"/>
 <path d="m31.25 2.375c8.615 3.154 14.75 11.417 14.75 21.13 0 12.426-10.07 22.5-22.5 22.5-9.708 0-17.971-6.135-21.12-14.75a23 23 0 0 0 44.875-7 23 23 0 0 0-16-21.875z" style="opacity:.2"/>
 <path d="m24 1c12.703 0 23 10.297 23 23s-10.297 23-23 23-23-10.297-23-23 10.297-23 23-23z" style="fill:url(#linearGradient3764)"/>
 <path d="m14 15c-1.109 0-2 0.891-2 2v16c0 1.109 0.891 2 2 2h6v2h10v-2h6c1.109 0 2-0.891 2-2v-16c0-1.109-0.891-2-2-2h-22zm0 2h22v16h-22v-16z" style="opacity:.1"/>
 <path d="m12 15h24v18h-24z" style="fill:#f9f9f9"/>
 <path d="m28 29 4.727-0.129c-0.969-3.938-4.484-6.871-8.719-6.871-2.75 0-5.176 1.254-6.828 3.191l3.02 5.234c0.09-0.559 0.289-1.098 0.605-1.57 0.316-0.473 0.746-0.875 1.273-1.18 0.465-0.266 0.953-0.434 1.449-0.496 0.5-0.063 1.012-0.02 1.488 0.105 0.48 0.129 0.93 0.344 1.328 0.645 0.328 0.246 1.418 0.719 1.66 1.07z" style="fill:#d74336"/>
 <path d="m26.438 28c0.441 0.355 0.777 0.801 1.031 1.313s0.406 1.078 0.406 1.688c0 0.535-0.117 1.07-0.313 1.531-0.07 0.164-0.156 0.316-0.25 0.469h5.469c0.363-1.672 0.25-3.418-0.313-5z" style="fill:#e9a903"/>
 <path d="m17.781 24.531c-2.281 2.188-3.246 5.414-2.563 8.469h5.5c-0.188-0.313-0.344-0.652-0.438-1-0.129-0.477-0.188-0.969-0.125-1.469 0.051-0.406 0.223-0.801 0.406-1.188z" style="fill:#0f9355"/>
 <path d="m40.03 7.531c3.712 4.084 5.969 9.514 5.969 15.469 0 12.703-10.297 23-23 23-5.954 0-11.384-2.256-15.469-5.969 4.178 4.291 10.01 6.969 16.469 6.969 12.703 0 23-10.298 23-23 0-6.462-2.677-12.291-6.969-16.469z" style="opacity:.1"/>
 <path d="m23.719 27.16c-2.02 0.156-3.574 1.848-3.563 3.875-4e-3 0.691 0.18 1.371 0.531 1.969h6.625c0.359-0.594 0.555-1.273 0.563-1.969 8e-3 -1.078-0.438-2.113-1.23-2.848-0.789-0.738-1.848-1.109-2.926-1.027z" style="fill:#f9f9f9"/>
 <path d="m23.781 28c-1.57 0.113-2.785 1.426-2.781 3-4e-3 0.734 0.262 1.449 0.75 2h4.469c0.5-0.547 0.777-1.258 0.781-2 4e-3 -0.836-0.344-1.633-0.953-2.203-0.613-0.57-1.434-0.859-2.266-0.797z" style="fill:#3d7de5"/>
 <path d="m13 14c-1.109 0-2 0.891-2 2v16c0 1.109 0.891 2 2 2h6v2h10v-2h6c1.109 0 2-0.891 2-2v-16c0-1.109-0.891-2-2-2h-22zm0 2h22v16h-22v-16z" style="fill:#d8d8d8"/>
 <rect x="19.5" y="29.664" width="1.2578" height="1.3984" style="fill:#3d7de5;opacity:.1"/>
</svg>

<?xml version="1.0" encoding="UTF-8" standalone="no"?>
<svg
   xmlns:dc="http://purl.org/dc/elements/1.1/"
   xmlns:cc="http://creativecommons.org/ns#"
   xmlns:rdf="http://www.w3.org/1999/02/22-rdf-syntax-ns#"
   xmlns:svg="http://www.w3.org/2000/svg"
   xmlns="http://www.w3.org/2000/svg"
   xmlns:sodipodi="http://sodipodi.sourceforge.net/DTD/sodipodi-0.dtd"
   xmlns:inkscape="http://www.inkscape.org/namespaces/inkscape"
   viewBox="0 0 48 48"
   version="1.1"
   id="svg87"
   sodipodi:docname="chromecast.svg"
   inkscape:version="0.92.1 r15371">
  <metadata
     id="metadata91">
    <rdf:RDF>
      <cc:Work
         rdf:about="">
        <dc:format>image/svg+xml</dc:format>
        <dc:type
           rdf:resource="http://purl.org/dc/dcmitype/StillImage" />
        <dc:title></dc:title>
      </cc:Work>
    </rdf:RDF>
  </metadata>
  <sodipodi:namedview
     pagecolor="#ffffff"
     bordercolor="#666666"
     borderopacity="1"
     objecttolerance="10"
     gridtolerance="10"
     guidetolerance="10"
     inkscape:pageopacity="0"
     inkscape:pageshadow="2"
     inkscape:window-width="1580"
     inkscape:window-height="840"
     id="namedview89"
     showgrid="true"
     inkscape:zoom="11.313709"
     inkscape:cx="16.711035"
     inkscape:cy="23.411377"
     inkscape:window-x="10"
     inkscape:window-y="50"
     inkscape:window-maximized="0"
     inkscape:current-layer="svg87">
    <inkscape:grid
       type="xygrid"
       id="grid1048" />
  </sodipodi:namedview>
  <defs
     id="defs17">
    <linearGradient
       id="linearGradient3764"
       y1="47"
       x2="0"
       y2="1"
       gradientUnits="userSpaceOnUse">
      <stop
         stop-color="#3f7fe9"
         stop-opacity="1"
         id="stop2" />
      <stop
         offset="1"
         stop-color="#518aeb"
         stop-opacity="1"
         id="stop4" />
    </linearGradient>
    <clipPath
       id="clipPath-138007856">
      <g
         transform="translate(0,-1004.3622)"
         id="g9">
        <path
           d="m -24 13 c 0 1.105 -0.672 2 -1.5 2 -0.828 0 -1.5 -0.895 -1.5 -2 0 -1.105 0.672 -2 1.5 -2 0.828 0 1.5 0.895 1.5 2 z"
           transform="matrix(15.333333,0,0,11.5,414.99999,878.8622)"
           fill="#1890d0"
           id="path7" />
      </g>
    </clipPath>
    <clipPath
       id="clipPath-156807184">
      <g
         transform="translate(0,-1004.3622)"
         id="g14">
        <path
           d="m -24 13 c 0 1.105 -0.672 2 -1.5 2 -0.828 0 -1.5 -0.895 -1.5 -2 0 -1.105 0.672 -2 1.5 -2 0.828 0 1.5 0.895 1.5 2 z"
           transform="matrix(15.333333,0,0,11.5,414.99999,878.8622)"
           fill="#1890d0"
           id="path12" />
      </g>
    </clipPath>
  </defs>
  <path
     style="opacity:0.05"
     inkscape:connector-curvature="0"
     id="path19"
     d="m 36.31,5 c 5.859,4.062 9.688,10.831 9.688,18.5 0,12.426 -10.07,22.5 -22.5,22.5 -7.669,0 -14.438,-3.828 -18.5,-9.688 1.037,1.822 2.306,3.499 3.781,4.969 4.085,3.712 9.514,5.969 15.469,5.969 12.703,0 23,-10.298 23,-23 0,-5.954 -2.256,-11.384 -5.969,-15.469 C 39.81,7.306 38.132,6.037 36.31,5 Z m 4.969,3.781 c 3.854,4.113 6.219,9.637 6.219,15.719 0,12.703 -10.297,23 -23,23 -6.081,0 -11.606,-2.364 -15.719,-6.219 4.16,4.144 9.883,6.719 16.219,6.719 12.703,0 23,-10.298 23,-23 0,-6.335 -2.575,-12.06 -6.719,-16.219 z" />
  <path
     style="opacity:0.1"
     inkscape:connector-curvature="0"
     id="path21"
     d="m 41.28,8.781 c 3.712,4.085 5.969,9.514 5.969,15.469 0,12.703 -10.297,23 -23,23 -5.954,0 -11.384,-2.256 -15.469,-5.969 4.113,3.854 9.637,6.219 15.719,6.219 12.703,0 23,-10.298 23,-23 0,-6.081 -2.364,-11.606 -6.219,-15.719 z" />
  <path
     style="opacity:0.2"
     inkscape:connector-curvature="0"
     id="path23"
     d="M 31.25,2.375 C 39.865,5.529 46,13.792 46,23.505 c 0,12.426 -10.07,22.5 -22.5,22.5 -9.708,0 -17.971,-6.135 -21.12,-14.75 a 23,23 0 0 0 44.875,-7 23,23 0 0 0 -16,-21.875 z" />
  <path
     inkscape:connector-curvature="0"
     style="fill:url(#linearGradient3764);fill-opacity:1"
     id="path27"
     d="M 24,1 C 36.703,1 47,11.297 47,24 47,36.703 36.703,47 24,47 11.297,47 1,36.703 1,24 1,11.297 11.297,1 24,1 Z" />
  <path
     style="fill:#000000;opacity:0.1"
     d="M 14 15 C 12.891 15 12 15.891 12 17 L 12 33 C 12 34.109 12.891 35 14 35 L 20 35 L 20 37 L 30 37 L 30 35 L 36 35 C 37.109 35 38 34.109 38 33 L 38 17 C 38 15.891 37.109 15 36 15 L 14 15 z M 14 17 L 36 17 L 36 33 L 14 33 L 14 17 z "
     id="path33" />
  <path
     d="M 12,15 H 36 V 33 H 12 Z m 0,0"
     id="path59"
     inkscape:connector-curvature="0"
     style="fill:#f9f9f9" />
  <path
     d="m 28,29 4.727,-0.129 C 31.758,24.933 28.243,22 24.008,22 c -2.75,0 -5.176,1.254 -6.828,3.191 l 3.02,5.234 c 0.09,-0.559 0.289,-1.098 0.605,-1.57 0.316,-0.473 0.746,-0.875 1.273,-1.18 0.465,-0.266 0.953,-0.434 1.449,-0.496 0.5,-0.063 1.012,-0.02 1.488,0.105 0.48,0.129 0.93,0.344 1.328,0.645 0.328,0.246 1.418,0.719 1.66,1.07 z m 0,0"
     id="path67"
     inkscape:connector-curvature="0"
     style="fill:#d74336;fill-opacity:1" />
  <path
     d="m 26.438,28 c 0.441,0.355 0.777,0.801 1.031,1.313 0.254,0.512 0.406,1.078 0.406,1.688 0,0.535 -0.117,1.07 -0.313,1.531 -0.07,0.164 -0.156,0.316 -0.25,0.469 h 5.469 c 0.363,-1.672 0.25,-3.418 -0.313,-5 z m 0,0"
     id="path69"
     inkscape:connector-curvature="0"
     style="fill:#e9a903;fill-opacity:1" />
  <path
     d="M 17.781,24.531 C 15.5,26.719 14.535,29.945 15.218,33 h 5.5 c -0.188,-0.313 -0.344,-0.652 -0.438,-1 -0.129,-0.477 -0.188,-0.969 -0.125,-1.469 0.051,-0.406 0.223,-0.801 0.406,-1.188 z m 0,0"
     id="path71"
     inkscape:connector-curvature="0"
     style="fill:#0f9355;fill-opacity:1" />
  <path
     style="opacity:0.1"
     inkscape:connector-curvature="0"
     id="path83"
     d="m 40.03,7.531 c 3.712,4.084 5.969,9.514 5.969,15.469 0,12.703 -10.297,23 -23,23 C 17.045,46 11.615,43.744 7.53,40.031 11.708,44.322 17.54,47 23.999,47 c 12.703,0 23,-10.298 23,-23 0,-6.462 -2.677,-12.291 -6.969,-16.469 z" />
  <path
     d="m 23.719,27.16 c -2.02,0.156 -3.574,1.848 -3.563,3.875 -0.004,0.691 0.18,1.371 0.531,1.969 h 6.625 c 0.359,-0.594 0.555,-1.273 0.563,-1.969 0.008,-1.078 -0.438,-2.113 -1.23,-2.848 -0.789,-0.738 -1.848,-1.109 -2.926,-1.027 z m 0,0"
     id="path73"
     inkscape:connector-curvature="0"
     style="fill:#f9f9f9" />
  <path
     d="m 23.781,28 c -1.57,0.113 -2.785,1.426 -2.781,3 -0.004,0.734 0.262,1.449 0.75,2 h 4.469 C 26.719,32.453 26.996,31.742 27,31 27.004,30.164 26.656,29.367 26.047,28.797 25.434,28.227 24.613,27.938 23.781,28 Z m 0,0"
     id="path75"
     inkscape:connector-curvature="0"
     style="fill:#3d7de5;fill-opacity:1" />
  <path
     style="fill:#d8d8d8"
     d="M 13 14 C 11.891 14 11 14.891 11 16 L 11 32 C 11 33.109 11.891 34 13 34 L 19 34 L 19 36 L 29 36 L 29 34 L 35 34 C 36.109 34 37 33.109 37 32 L 37 16 C 37 14.891 36.109 14 35 14 L 13 14 z M 13 16 L 35 16 L 35 32 L 13 32 L 13 16 z "
     id="path61" />
  <rect
     style="opacity:0.1;fill:#3d7de5;fill-opacity:1;stroke:none;stroke-opacity:1"
     id="rect1095"
     width="1.2578125"
     height="1.3984375"
     x="19.5"
     y="29.664062" />
</svg>
